X: 21741
T: King Of The Cannibal Islands, The
R: slide
M: 12/8
K: Dmajor
M:6/8
e|f2 e d2 c|c2 B A2 F/A/|GFG E2 G|F2 G A2 D|
B2 D d2 D|A2 D d2 D|cde ABc|d3- d3||
f2 f f2 e|f2 f f2 e|f2 f g2 f|e>fe e3|
d2 d d2 c|d2 d d2 c|d2 d e2 d|cde ABc|
d3 c>BA|B2 c d3|d3 c>BA|B2 c d2 f|
e2 d e2 f|e2 d e2 f|e2 a f2 a|eAB cde|
d3 c>BA|B2 c d3|d3 c>BA|B2 c d2 f|
e2 d e2 f|e2 d e2 f|e2 a f2 a|eAB cd||

